;Generated by Cura LulzBot Edition GCodeWriter Version: 3.2.21
;FLAVOR:Marlin
;TIME:915
;Filament used: 0.0540972m
;Layer height: 0.15
;Generated with Cura_SteamEngine 3.2.21
M82 ;absolute extrusion mode
;This G-Code has been generated specifically for the LulzBot TAZ 6 with standard extruder
M75 ; start GLCD timer
G26 ; clear potential 'probe fail' condition
G21 ; set units to Millimetres
M107 ; disable fans
G90 ; absolute positioning
M82 ; set extruder to absolute mode
G92 E0 ; set extruder position to 0
M140 S95 ; start bed heating up
G28 XY ; home X and Y
G1 X-19 Y258 F1000 ; move to safe homing position
M109 R170 ; soften filament before homing Z
G28 Z ; home Z
G1 E-30 F100 ; retract filament
M109 R170 ; wait for extruder to reach wiping temp
G1 X-15 Y100 F3000 ; move above wiper pad
G1 Z1 ; push nozzle into wiper
G1 X-17 Y95 F1000 ; slow wipe
G1 X-17 Y90 F1000 ; slow wipe
G1 X-17 Y85 F1000 ; slow wipe
G1 X-15 Y90 F1000 ; slow wipe
G1 X-17 Y80 F1000 ; slow wipe
G1 X-15 Y95 F1000 ; slow wipe
G1 X-17 Y75 F2000 ; fast wipe
G1 X-15 Y65 F2000 ; fast wipe
G1 X-17 Y70 F2000 ; fast wipe
G1 X-15 Y60 F2000 ; fast wipe
G1 X-17 Y55 F2000 ; fast wipe
G1 X-15 Y50 F2000 ; fast wipe
G1 X-17 Y40 F2000 ; fast wipe
G1 X-15 Y45 F2000 ; fast wipe
G1 X-17 Y35 F2000 ; fast wipe
G1 X-15 Y40 F2000 ; fast wipe
G1 X-17 Y70 F2000 ; fast wipe
G1 X-15 Y30 Z2 F2000 ; fast wipe
G1 X-17 Y35 F2000 ; fast wipe
G1 X-15 Y25 F2000 ; fast wipe
G1 X-17 Y30 F2000 ; fast wipe
G1 X-15 Y25 Z1.5 F1000 ; slow wipe
G1 X-17 Y23 F1000 ; slow wipe
G1 Z10 ; raise extruder
M109 R170 ; wait for extruder to reach probe temp
G1 X-9 Y-9 ; move above first probe point
M204 S100 ; set probing acceleration
G29 ; start auto-leveling sequence
M204 S500 ; restore standard acceleration
G1 X0 Y0 Z15 F5000 ; move up off last probe point
G4 S1 ; pause
M400 ; wait for moves to finish
M117 Heating... ; progress indicator message on LCD
M109 R245 ; wait for extruder to reach printing temp
M190 S95 ; wait for bed to reach printing temp
G1 Z2 E0 F75 ; prime tiny bit of filament into the nozzle
M117 TAZ 6 Printing... ; progress indicator message on LCD

M221 S100
;LAYER_COUNT:40
;LAYER:0
M107
G0 F1750 X130.628 Y133.172 Z0.4
;TYPE:SKIRT
G1 F600 X131.088 Y132.763 E0.01896
G1 X131.598 Y132.416 E0.03797
G1 X132.148 Y132.139 E0.05694
G1 X132.729 Y131.935 E0.07591
G1 X133.332 Y131.807 E0.0949
G1 X134.009 Y131.759 E0.11581
G1 X145.991 Y131.76 E0.48495
G1 X146.606 Y131.8 E0.50394
G1 X147.211 Y131.919 E0.52294
G1 X147.795 Y132.116 E0.54192
G1 X148.348 Y132.386 E0.56088
G1 X148.862 Y132.726 E0.57987
G1 X149.328 Y133.129 E0.59885
G1 X149.737 Y133.59 E0.61784
G1 X150.084 Y134.099 E0.63682
G1 X150.361 Y134.649 E0.65579
G1 X150.565 Y135.231 E0.67479
G1 X150.693 Y135.833 E0.69375
G1 X150.741 Y136.51 E0.71466
G1 X150.741 Y143.491 E0.92973
G1 X150.701 Y144.106 E0.94872
G1 X150.582 Y144.71 E0.96768
G1 X150.385 Y145.294 E0.98667
G1 X150.115 Y145.848 E1.00566
G1 X149.775 Y146.362 E1.02464
G1 X149.372 Y146.828 E1.04362
G1 X148.912 Y147.237 E1.06259
G1 X148.402 Y147.584 E1.08159
G1 X147.852 Y147.861 E1.10056
G1 X147.271 Y148.065 E1.11953
G1 X146.668 Y148.193 E1.13852
G1 X145.991 Y148.241 E1.15943
G1 X134.009 Y148.241 E1.52858
G1 X133.394 Y148.201 E1.54756
G1 X132.79 Y148.082 E1.56653
G1 X132.206 Y147.885 E1.58552
G1 X131.652 Y147.615 E1.6045
G1 X131.138 Y147.275 E1.62349
G1 X130.672 Y146.872 E1.64247
G1 X130.263 Y146.412 E1.66143
G1 X129.916 Y145.902 E1.68044
G1 X129.639 Y145.352 E1.69941
G1 X129.435 Y144.771 E1.71838
G1 X129.307 Y144.168 E1.73737
G1 X129.259 Y143.491 E1.75828
G1 X129.259 Y136.509 E1.97338
G1 X129.299 Y135.894 E1.99237
G1 X129.418 Y135.29 E2.01134
G1 X129.615 Y134.706 E2.03032
G1 X129.885 Y134.152 E2.04931
G1 X130.225 Y133.638 E2.0683
G1 X130.628 Y133.172 E2.08728
G0 F1750 X131.12 Y133.392
G1 F600 X131.574 Y133.026 E2.10524
G1 X132.073 Y132.726 E2.12318
G1 X132.609 Y132.496 E2.14115
G1 X133.171 Y132.342 E2.1591
G1 X134.009 Y132.259 E2.18505
G1 X145.991 Y132.26 E2.55419
G1 X146.573 Y132.3 E2.57216
G1 X147.143 Y132.419 E2.5901
G1 X147.692 Y132.615 E2.60806
G1 X148.209 Y132.885 E2.62603
G1 X148.684 Y133.222 E2.64397
G1 X149.108 Y133.621 E2.66191
G1 X149.474 Y134.075 E2.67987
G1 X149.775 Y134.574 E2.69783
G1 X150.004 Y135.11 E2.71578
G1 X150.158 Y135.672 E2.73374
G1 X150.241 Y136.51 E2.75968
G1 X150.241 Y143.491 E2.97475
G1 X150.201 Y144.072 E2.99269
G1 X150.082 Y144.643 E3.01066
G1 X149.886 Y145.192 E3.02862
G1 X149.617 Y145.708 E3.04655
G1 X149.279 Y146.184 E3.06454
G1 X148.88 Y146.608 E3.08247
G1 X148.426 Y146.974 E3.10044
G1 X147.927 Y147.274 E3.11838
G1 X147.391 Y147.504 E3.13635
G1 X146.829 Y147.658 E3.1543
G1 X145.991 Y147.741 E3.18024
G1 X134.009 Y147.741 E3.54938
G1 X133.428 Y147.701 E3.56733
G1 X132.857 Y147.582 E3.58529
G1 X132.308 Y147.386 E3.60325
G1 X131.792 Y147.117 E3.62118
G1 X131.316 Y146.779 E3.63917
G1 X130.892 Y146.38 E3.6571
G1 X130.526 Y145.926 E3.67507
G1 X130.226 Y145.427 E3.69301
G1 X129.996 Y144.891 E3.71098
G1 X129.842 Y144.329 E3.72893
G1 X129.759 Y143.491 E3.75487
G1 X129.759 Y136.509 E3.96997
G1 X129.799 Y135.928 E3.98792
G1 X129.918 Y135.357 E4.00589
G1 X130.114 Y134.808 E4.02384
G1 X130.383 Y134.292 E4.04177
G1 X130.721 Y133.816 E4.05976
G1 X131.12 Y133.392 E4.07769
G0 F1750 X131.216 Y134.007
G1 F600 X131.61 Y133.627 E4.09456
G1 X132.055 Y133.308 E4.11143
G1 X132.542 Y133.058 E4.12829
G1 X133.06 Y132.881 E4.14516
G1 X133.598 Y132.782 E4.16201
G1 X134.009 Y132.759 E4.17469
G1 X145.991 Y132.76 E4.54383
G1 X146.537 Y132.8 E4.5607
G1 X147.071 Y132.919 E4.57756
G1 X147.583 Y133.115 E4.59445
G1 X148.06 Y133.382 E4.61129
G1 X148.493 Y133.717 E4.62815
G1 X148.873 Y134.111 E4.64502
G1 X149.192 Y134.556 E4.66188
G1 X149.442 Y135.043 E4.67875
G1 X149.619 Y135.561 E4.69561
G1 X149.718 Y136.099 E4.71247
G1 X149.741 Y136.51 E4.72515
G1 X149.741 Y143.491 E4.94022
G1 X149.701 Y144.037 E4.95709
G1 X149.582 Y144.571 E4.97394
G1 X149.387 Y145.082 E4.99079
G1 X149.119 Y145.56 E5.00767
G1 X148.784 Y145.993 E5.02454
G1 X148.39 Y146.373 E5.0414
G1 X147.945 Y146.692 E5.05827
G1 X147.458 Y146.942 E5.07514
G1 X146.94 Y147.119 E5.092
G1 X146.402 Y147.218 E5.10886
G1 X145.991 Y147.241 E5.12154
G1 X134.009 Y147.241 E5.49068
G1 X133.463 Y147.201 E5.50755
G1 X132.929 Y147.082 E5.5244
G1 X132.418 Y146.887 E5.54125
G1 X131.94 Y146.619 E5.55813
G1 X131.507 Y146.284 E5.575
G1 X131.127 Y145.89 E5.59186
G1 X130.808 Y145.445 E5.60873
G1 X130.558 Y144.958 E5.6256
G1 X130.381 Y144.44 E5.64246
G1 X130.282 Y143.902 E5.65932
G1 X130.259 Y143.491 E5.672
G1 X130.259 Y136.509 E5.8871
G1 X130.299 Y135.963 E5.90397
G1 X130.418 Y135.429 E5.92082
G1 X130.613 Y134.918 E5.93767
G1 X130.881 Y134.44 E5.95455
G1 X131.216 Y134.007 E5.97142
G0 F1750 X131.709 Y134.213
G1 F600 X132.096 Y133.881 E5.98713
G1 X132.531 Y133.615 E6.00284
G1 X133.001 Y133.419 E6.01853
G1 X133.496 Y133.3 E6.03421
G1 X134.009 Y133.259 E6.05007
G1 X145.991 Y133.26 E6.41921
G1 X146.499 Y133.3 E6.43491
G1 X146.995 Y133.419 E6.45062
G1 X147.465 Y133.614 E6.4663
G1 X147.9 Y133.88 E6.48201
G1 X148.288 Y134.21 E6.4977
G1 X148.619 Y134.598 E6.51341
G1 X148.885 Y135.032 E6.52909
G1 X149.081 Y135.502 E6.54478
G1 X149.2 Y135.998 E6.5605
G1 X149.241 Y136.51 E6.57632
G1 X149.241 Y143.491 E6.79139
G1 X149.201 Y143.999 E6.80709
G1 X149.082 Y144.494 E6.82277
G1 X148.887 Y144.965 E6.83848
G1 X148.621 Y145.4 E6.85419
G1 X148.291 Y145.787 E6.86986
G1 X147.904 Y146.119 E6.88557
G1 X147.469 Y146.385 E6.90127
G1 X146.999 Y146.581 E6.91696
G1 X146.504 Y146.7 E6.93265
G1 X145.991 Y146.741 E6.9485
G1 X134.009 Y146.741 E7.31764
G1 X133.501 Y146.701 E7.33334
G1 X133.006 Y146.582 E7.34903
G1 X132.535 Y146.387 E7.36473
G1 X132.1 Y146.121 E7.38044
G1 X131.713 Y145.791 E7.39611
G1 X131.381 Y145.404 E7.41182
G1 X131.115 Y144.969 E7.42753
G1 X130.919 Y144.499 E7.44322
G1 X130.8 Y144.004 E7.4589
G1 X130.759 Y143.491 E7.47476
G1 X130.759 Y136.509 E7.68986
G1 X130.799 Y136.001 E7.70556
G1 X130.918 Y135.506 E7.72124
G1 X131.113 Y135.035 E7.73695
G1 X131.379 Y134.6 E7.75265
G1 X131.709 Y134.213 E7.76832
G1 F600 E6.76832
G0 F1750 X133.372 Y135.903
G0 X133.403 Y135.934
G0 X135.596 Y138.165
G0 X135.627 Y138.196
G0 X135.979 Y138.555
G0 X136.676 Y139.176
G0 X136.633 Y139.133
G0 X136.703 Y139.203
;TYPE:WALL-OUTER
G1 F600 E7.76832
G1 X136.563 Y139.375 E7.77516
G1 X136.515 Y139.467 E7.77835
G1 X136.46 Y139.569 E7.78192
G1 X136.428 Y139.674 E7.7853
G1 X136.398 Y139.773 E7.78849
G1 X136.379 Y139.895 E7.79229
G1 X136.379 Y140.008 E7.79578
G1 X136.379 Y140.111 E7.79895
G1 X136.4 Y140.214 E7.80219
G1 X136.423 Y140.327 E7.80574
G1 X136.464 Y140.426 E7.80904
G1 X136.504 Y140.524 E7.8123
G1 X136.567 Y140.63 E7.8161
G1 X136.703 Y140.797 E7.82274
G1 X136.875 Y140.937 E7.82957
G1 X136.967 Y140.985 E7.83277
G1 X137.069 Y141.04 E7.83634
G1 X137.174 Y141.072 E7.83972
G1 X137.273 Y141.102 E7.84291
G1 X137.395 Y141.121 E7.84671
G1 X137.508 Y141.121 E7.85019
G1 X137.611 Y141.121 E7.85336
G1 X137.719 Y141.099 E7.85676
G1 X137.827 Y141.077 E7.86015
G1 X137.926 Y141.036 E7.86346
G1 X138.024 Y140.996 E7.86672
G1 X138.121 Y140.939 E7.87018
G1 X138.13 Y140.933 E7.87052
G1 X138.297 Y140.797 E7.87715
G1 X138.437 Y140.625 E7.88398
G1 X138.485 Y140.533 E7.88718
G1 X138.54 Y140.431 E7.89075
G1 X138.572 Y140.326 E7.89413
G1 X138.602 Y140.227 E7.89732
G1 X138.621 Y140.105 E7.90112
G1 X138.621 Y139.992 E7.90461
G1 X138.621 Y139.889 E7.90778
G1 X138.599 Y139.781 E7.91117
G1 X138.577 Y139.673 E7.91457
G1 X138.536 Y139.574 E7.91787
G1 X138.496 Y139.476 E7.92113
G1 X138.433 Y139.37 E7.92493
G1 X138.297 Y139.203 E7.93157
G1 X138.125 Y139.063 E7.9384
G1 X138.033 Y139.015 E7.9416
G1 X137.931 Y138.96 E7.94517
G1 X137.826 Y138.928 E7.94855
G1 X137.727 Y138.898 E7.95173
G1 X137.605 Y138.879 E7.95554
G1 X137.492 Y138.879 E7.95902
G1 X137.389 Y138.879 E7.96219
G1 X137.281 Y138.901 E7.96559
G1 X137.179 Y138.922 E7.9688
G1 X137.064 Y138.963 E7.97256
G1 X136.969 Y139.013 E7.97587
G1 X136.875 Y139.063 E7.97915
G1 X136.703 Y139.203 E7.98598
G0 F1750 X136.563 Y139.375
G0 X136.55 Y139.4
G0 X137.163 Y138.865
G1 F600 X137.267 Y138.838
G1 X137.381 Y138.823
G1 X137.393 Y138.821
G1 X137.492 Y138.815
G1 X137.609 Y138.825
G1 X137.74 Y138.838
G1 X137.844 Y138.865
G1 X137.952 Y138.91
G1 X138.063 Y138.957
G1 X138.158 Y139.013
G1 X138.338 Y139.162
G1 X138.479 Y139.332
G1 X138.487 Y139.342
G1 X138.543 Y139.438
G1 X138.548 Y139.449
G1 X138.596 Y139.548
G1 X138.631 Y139.645
G1 X138.634 Y139.657
G1 X138.662 Y139.767
G1 X138.677 Y139.881
G1 X138.679 Y139.893
G1 X138.685 Y139.992
G1 X138.675 Y140.109
G1 X138.662 Y140.24
G1 X138.635 Y140.344
G1 X138.598 Y140.444
G1 X138.593 Y140.454
G1 X138.543 Y140.563
G1 X138.487 Y140.658
G1 X138.342 Y140.834
G1 X138.166 Y140.978
G1 X138.152 Y140.99
G1 X138.062 Y141.043
G1 X138.051 Y141.048
G1 X137.952 Y141.096
G1 X137.848 Y141.133
G1 X137.733 Y141.162
G1 X137.619 Y141.177
G1 X137.607 Y141.179
G1 X137.508 Y141.185
G1 X137.391 Y141.175
G1 X137.26 Y141.162
G1 X137.156 Y141.135
G1 X137.048 Y141.09
G1 X136.937 Y141.043
G1 X136.842 Y140.987
G1 X136.662 Y140.838
G1 X136.521 Y140.668
G1 X136.513 Y140.658
G1 X136.457 Y140.562
G1 X136.452 Y140.551
G1 X136.404 Y140.452
G1 X136.367 Y140.348
G1 X136.337 Y140.227
G1 X136.326 Y140.117
G1 X136.315 Y140.008
G1 X136.325 Y139.891
G1 X136.338 Y139.76
G1 X136.365 Y139.656
G1 X136.402 Y139.556
G1 X136.407 Y139.546
G1 X136.457 Y139.437
G1 X136.513 Y139.342
G1 X136.662 Y139.162
G1 X136.842 Y139.013
G1 X136.938 Y138.957
G1 X137.038 Y138.909
G1 X137.048 Y138.904
G1 X137.152 Y138.867
G1 X137.163 Y138.865
G0 F1750 X137.267 Y138.838
G0 X137.381 Y138.823
G0 X137.393 Y138.821
G0 X137.41 Y138.82
G1 F600 E6.98598
G0 F1750 X137.416 Y138.92
G0 X138.585 Y139.73
G0 X138.595 Y139.736
G0 X138.643 Y139.77
G0 X139.568 Y139.646
G0 X140.404 Y139.919
G0 X141.335 Y140.008
G0 X141.633 Y139.133
G0 X141.703 Y139.203
G1 F600 E7.98598
G1 X141.563 Y139.375 E7.99281
G1 X141.515 Y139.467 E7.99601
G1 X141.46 Y139.569 E7.99958
G1 X141.428 Y139.674 E8.00296
G1 X141.398 Y139.773 E8.00615
G1 X141.379 Y139.895 E8.00995
G1 X141.379 Y140.008 E8.01343
G1 X141.379 Y140.111 E8.0166
G1 X141.4 Y140.214 E8.01984
G1 X141.423 Y140.327 E8.0234
G1 X141.464 Y140.426 E8.0267
G1 X141.504 Y140.524 E8.02996
G1 X141.567 Y140.63 E8.03376
G1 X141.703 Y140.797 E8.04039
G1 X141.875 Y140.937 E8.04722
G1 X141.967 Y140.985 E8.05042
G1 X142.069 Y141.04 E8.05399
G1 X142.174 Y141.072 E8.05737
G1 X142.273 Y141.102 E8.06056
G1 X142.395 Y141.121 E8.06436
G1 X142.508 Y141.121 E8.06785
G1 X142.611 Y141.121 E8.07102
G1 X142.719 Y141.099 E8.07441
G1 X142.827 Y141.077 E8.07781
G1 X142.926 Y141.036 E8.08111
G1 X143.024 Y140.996 E8.08437
G1 X143.121 Y140.939 E8.08784
G1 X143.13 Y140.933 E8.08817
G1 X143.297 Y140.797 E8.09481
G1 X143.437 Y140.625 E8.10164
G1 X143.485 Y140.533 E8.10484
G1 X143.54 Y140.431 E8.10841
G1 X143.572 Y140.326 E8.11179
G1 X143.602 Y140.227 E8.11497
G1 X143.621 Y140.105 E8.11878
G1 X143.621 Y139.992 E8.12226
G1 X143.621 Y139.889 E8.12543
G1 X143.599 Y139.781 E8.12883
G1 X143.577 Y139.673 E8.13222
G1 X143.536 Y139.574 E8.13553
G1 X143.496 Y139.476 E8.13879
G1 X143.433 Y139.37 E8.14259
G1 X143.297 Y139.203 E8.14922
G1 X143.125 Y139.063 E8.15605
G1 X143.033 Y139.015 E8.15925
G1 X142.931 Y138.96 E8.16282
G1 X142.826 Y138.928 E8.1662
G1 X142.727 Y138.898 E8.16939
G1 X142.605 Y138.879 E8.17319
G1 X142.492 Y138.879 E8.17667
G1 X142.389 Y138.879 E8.17985
G1 X142.281 Y138.901 E8.18324
G1 X142.173 Y138.923 E8.18664
G1 X142.074 Y138.964 E8.18994
G1 X141.976 Y139.004 E8.1932
G1 X141.87 Y139.067 E8.197
G1 X141.703 Y139.203 E8.20363
G0 F1750 X141.563 Y139.375
G0 X141.55 Y139.4
G0 X141.462 Y139.352
G0 X141.495 Y139.36
G0 X141.538 Y139.371
G0 X141.523 Y139.367
G0 X141.566 Y139.378
G0 X143.578 Y139.894
G0 X143.677 Y139.881
G1 F600 X143.679 Y139.893
G1 X143.685 Y139.992
G1 X143.675 Y140.109
G1 X143.662 Y140.24
G1 X143.635 Y140.344
G1 X143.598 Y140.444
G1 X143.593 Y140.454
G1 X143.543 Y140.563
G1 X143.487 Y140.658
G1 X143.342 Y140.834
G1 X143.166 Y140.978
G1 X143.152 Y140.99
G1 X143.062 Y141.043
G1 X143.051 Y141.048
G1 X142.952 Y141.096
G1 X142.848 Y141.133
G1 X142.733 Y141.162
G1 X142.619 Y141.177
G1 X142.607 Y141.179
G1 X142.508 Y141.185
G1 X142.391 Y141.175
G1 X142.26 Y141.162
G1 X142.156 Y141.135
G1 X142.048 Y141.09
G1 X141.937 Y141.043
G1 X141.842 Y140.987
G1 X141.662 Y140.838
G1 X141.521 Y140.668
G1 X141.513 Y140.658
G1 X141.457 Y140.562
G1 X141.452 Y140.551
G1 X141.404 Y140.452
G1 X141.367 Y140.348
G1 X141.337 Y140.227
G1 X141.326 Y140.117
G1 X141.315 Y140.008
G1 X141.325 Y139.891
G1 X141.338 Y139.76
G1 X141.365 Y139.656
G1 X141.402 Y139.556
G1 X141.407 Y139.546
G1 X141.457 Y139.437
G1 X141.513 Y139.342
G1 X141.662 Y139.162
G1 X141.832 Y139.021
G1 X141.842 Y139.013
G1 X141.938 Y138.957
G1 X141.949 Y138.952
G1 X142.048 Y138.904
G1 X142.152 Y138.867
G1 X142.267 Y138.838
G1 X142.381 Y138.823
G1 X142.393 Y138.821
G1 X142.492 Y138.815
G1 X142.609 Y138.825
G1 X142.74 Y138.838
G1 X142.844 Y138.865
G1 X142.952 Y138.91
G1 X143.063 Y138.957
G1 X143.158 Y139.013
G1 X143.338 Y139.162
G1 X143.479 Y139.332
G1 X143.487 Y139.342
G1 X143.543 Y139.438
G1 X143.548 Y139.449
G1 X143.596 Y139.548
G1 X143.631 Y139.645
G1 X143.634 Y139.657
G1 X143.662 Y139.767
G1 X143.677 Y139.881
G0 F1750 X143.679 Y139.893
G0 X143.685 Y139.992
G0 X143.675 Y140.109
G0 X143.673 Y140.131
G1 F600 E7.20363
G0 F1750 X143.574 Y140.121
G0 X143.324 Y139.176
G0 X144.247 Y138.831
G0 X144.367 Y139.111
G0 X145.25 Y139.176
G0 X145.65 Y137.25
G0 X145.75 Y137.25
G1 F600 E8.20363
G1 X145.75 Y142.75 E8.37308
G1 X145.75 Y143.25 E8.38848
G1 X145.25 Y143.25 E8.40389
G1 X134.75 Y143.25 E8.72737
G1 X134.25 Y143.25 E8.74278
G1 X134.25 Y142.75 E8.75818
G1 X134.25 Y137.25 E8.92762
G1 X134.25 Y136.75 E8.94303
G1 X134.75 Y136.75 E8.95843
G1 X145.25 Y136.75 E9.28192
G1 X145.75 Y136.75 E9.29732
G1 X145.75 Y137.25 E9.31273
G0 F1750 X145.75 Y137.5
G0 X145.65 Y137.5
G0 X145.316 Y137.25
G0 X134.68 Y137.18
G0 X134.75 Y137.25
M104 S245
G1 F600 X134.75 Y142.75 E9.48217
G1 X145.25 Y142.75 E9.80565
G1 X145.25 Y137.25 E9.9751
G1 X134.75 Y137.25 E10.29858
G0 F1750 X134.75 Y137.5
G1 F600 E9.29858
