;Generated by Cura LulzBot Edition GCodeWriter Version: 3.2.21
;FLAVOR:Marlin
;TIME:957
;Filament used: 0.0595693m
;Layer height: 0.15
;Generated with Cura_SteamEngine 3.2.21
M82 ;absolute extrusion mode
;This G-Code has been generated specifically for the LulzBot TAZ 6 with standard extruder
M75 ; start GLCD timer
G26 ; clear potential 'probe fail' condition
G21 ; set units to Millimetres
M107 ; disable fans
G90 ; absolute positioning
M82 ; set extruder to absolute mode
G92 E0 ; set extruder position to 0
M140 S95 ; start bed heating up
G28 XY ; home X and Y
G1 X-19 Y258 F1000 ; move to safe homing position
M109 R170 ; soften filament before homing Z
G28 Z ; home Z
G1 E-30 F100 ; retract filament
M109 R170 ; wait for extruder to reach wiping temp
G1 X-15 Y100 F3000 ; move above wiper pad
G1 Z1 ; push nozzle into wiper
G1 X-17 Y95 F1000 ; slow wipe
G1 X-17 Y90 F1000 ; slow wipe
G1 X-17 Y85 F1000 ; slow wipe
G1 X-15 Y90 F1000 ; slow wipe
G1 X-17 Y80 F1000 ; slow wipe
G1 X-15 Y95 F1000 ; slow wipe
G1 X-17 Y75 F2000 ; fast wipe
G1 X-15 Y65 F2000 ; fast wipe
G1 X-17 Y70 F2000 ; fast wipe
G1 X-15 Y60 F2000 ; fast wipe
G1 X-17 Y55 F2000 ; fast wipe
G1 X-15 Y50 F2000 ; fast wipe
G1 X-17 Y40 F2000 ; fast wipe
G1 X-15 Y45 F2000 ; fast wipe
G1 X-17 Y35 F2000 ; fast wipe
G1 X-15 Y40 F2000 ; fast wipe
G1 X-17 Y70 F2000 ; fast wipe
G1 X-15 Y30 Z2 F2000 ; fast wipe
G1 X-17 Y35 F2000 ; fast wipe
G1 X-15 Y25 F2000 ; fast wipe
G1 X-17 Y30 F2000 ; fast wipe
G1 X-15 Y25 Z1.5 F1000 ; slow wipe
G1 X-17 Y23 F1000 ; slow wipe
G1 Z10 ; raise extruder
M109 R170 ; wait for extruder to reach probe temp
G1 X-9 Y-9 ; move above first probe point
M204 S100 ; set probing acceleration
G29 ; start auto-leveling sequence
M204 S500 ; restore standard acceleration
G1 X0 Y0 Z15 F5000 ; move up off last probe point
G4 S1 ; pause
M400 ; wait for moves to finish
M117 Heating... ; progress indicator message on LCD
M109 R245 ; wait for extruder to reach printing temp
M190 S95 ; wait for bed to reach printing temp
G1 Z2 E0 F75 ; prime tiny bit of filament into the nozzle
M117 TAZ 6 Printing... ; progress indicator message on LCD

M221 S100
;LAYER_COUNT:55
;LAYER:0
M107
G0 F1750 X127.288 Y131.074 Z0.3
;TYPE:SKIRT
G1 F600 X127.748 Y130.665 E0.01422
G1 X128.258 Y130.318 E0.02848
G1 X128.808 Y130.041 E0.0427
G1 X129.389 Y129.837 E0.05693
G1 X129.992 Y129.709 E0.07118
G1 X130.641 Y129.661 E0.08621
G1 X132.155 Y129.652 E0.1212
G1 X132.332 Y129.654 E0.12529
G1 X139.581 Y129.881 E0.29286
G1 X143.154 Y129.842 E0.37543
G1 X149.191 Y129.664 E0.51498
G1 X149.806 Y129.686 E0.5292
G1 X150.414 Y129.787 E0.54344
G1 X151.004 Y129.966 E0.55769
G1 X151.565 Y130.22 E0.57191
G1 X152.089 Y130.545 E0.58616
G1 X152.566 Y130.934 E0.60038
G1 X152.989 Y131.382 E0.61462
G1 X153.351 Y131.881 E0.62886
G1 X153.644 Y132.423 E0.6431
G1 X153.866 Y132.998 E0.65734
G1 X154.01 Y133.597 E0.67158
G1 X154.081 Y134.412 E0.69048
G1 X154.081 Y138.123 E0.77623
G1 X154.041 Y138.738 E0.79047
G1 X153.922 Y139.342 E0.80469
G1 X153.725 Y139.926 E0.81893
G1 X153.455 Y140.48 E0.83317
G1 X153.115 Y140.994 E0.84741
G1 X152.712 Y141.46 E0.86165
G1 X152.252 Y141.869 E0.87587
G1 X151.742 Y142.216 E0.89012
G1 X151.192 Y142.493 E0.90435
G1 X150.611 Y142.697 E0.91858
G1 X150.008 Y142.825 E0.93282
G1 X149.331 Y142.873 E0.94851
G1 X130.669 Y142.873 E1.37971
G1 X130.054 Y142.833 E1.39395
G1 X129.45 Y142.714 E1.40818
G1 X128.866 Y142.517 E1.42242
G1 X128.312 Y142.247 E1.43666
G1 X127.798 Y141.907 E1.4509
G1 X127.332 Y141.504 E1.46513
G1 X126.923 Y141.044 E1.47935
G1 X126.576 Y140.534 E1.49361
G1 X126.299 Y139.984 E1.50784
G1 X126.095 Y139.403 E1.52206
G1 X125.967 Y138.8 E1.53631
G1 X125.919 Y138.123 E1.55199
G1 X125.919 Y134.411 E1.63776
G1 X125.959 Y133.796 E1.652
G1 X126.078 Y133.192 E1.66622
G1 X126.275 Y132.608 E1.68047
G1 X126.545 Y132.054 E1.69471
G1 X126.885 Y131.54 E1.70894
G1 X127.288 Y131.074 E1.72318
G0 F1750 X127.78 Y131.294
G1 F600 X128.234 Y130.928 E1.73665
G1 X128.733 Y130.628 E1.75011
G1 X129.269 Y130.398 E1.76358
G1 X129.831 Y130.244 E1.77705
G1 X130.644 Y130.161 E1.79593
G1 X132.158 Y130.152 E1.83092
G1 X132.316 Y130.154 E1.83457
G1 X139.571 Y130.381 E2.00228
G1 X143.174 Y130.342 E2.08554
G1 X149.205 Y130.164 E2.22495
G1 X149.788 Y130.187 E2.23843
G1 X150.362 Y130.289 E2.2519
G1 X150.916 Y130.469 E2.26536
G1 X151.44 Y130.722 E2.27881
G1 X151.925 Y131.046 E2.29229
G1 X152.361 Y131.432 E2.30574
G1 X152.741 Y131.875 E2.31923
G1 X153.056 Y132.365 E2.33269
G1 X153.301 Y132.894 E2.34616
G1 X153.471 Y133.451 E2.35961
G1 X153.563 Y134.026 E2.37307
G1 X153.581 Y134.412 E2.382
G1 X153.581 Y138.123 E2.46774
G1 X153.541 Y138.704 E2.4812
G1 X153.422 Y139.275 E2.49468
G1 X153.226 Y139.824 E2.50815
G1 X152.957 Y140.34 E2.52159
G1 X152.619 Y140.816 E2.53508
G1 X152.22 Y141.24 E2.54853
G1 X151.766 Y141.606 E2.56201
G1 X151.267 Y141.906 E2.57546
G1 X150.731 Y142.136 E2.58894
G1 X150.169 Y142.29 E2.6024
G1 X149.331 Y142.373 E2.62186
G1 X130.669 Y142.373 E3.05306
G1 X130.088 Y142.333 E3.06652
G1 X129.517 Y142.214 E3.08
G1 X128.968 Y142.018 E3.09347
G1 X128.452 Y141.749 E3.10691
G1 X127.976 Y141.411 E3.1204
G1 X127.552 Y141.012 E3.13385
G1 X127.186 Y140.558 E3.14733
G1 X126.886 Y140.059 E3.16078
G1 X126.656 Y139.523 E3.17426
G1 X126.502 Y138.961 E3.18772
G1 X126.419 Y138.123 E3.20718
G1 X126.419 Y134.411 E3.29295
G1 X126.459 Y133.83 E3.30641
G1 X126.578 Y133.259 E3.31988
G1 X126.774 Y132.71 E3.33335
G1 X127.043 Y132.194 E3.3468
G1 X127.381 Y131.718 E3.36029
G1 X127.78 Y131.294 E3.37374
G0 F1750 X127.876 Y131.909
G1 F600 X128.27 Y131.529 E3.38639
G1 X128.715 Y131.21 E3.39904
G1 X129.202 Y130.96 E3.41169
G1 X129.72 Y130.783 E3.42434
G1 X130.258 Y130.684 E3.43698
G1 X130.647 Y130.661 E3.44598
G1 X132.161 Y130.652 E3.48096
G1 X132.3 Y130.654 E3.48418
G1 X139.56 Y130.881 E3.65201
G1 X143.194 Y130.842 E3.73598
G1 X149.22 Y130.664 E3.87528
G1 X149.767 Y130.687 E3.88793
G1 X150.305 Y130.791 E3.90059
G1 X150.821 Y130.971 E3.91322
G1 X151.306 Y131.225 E3.92587
G1 X151.749 Y131.546 E3.93851
G1 X152.141 Y131.929 E3.95117
G1 X152.472 Y132.364 E3.9638
G1 X152.737 Y132.843 E3.97645
G1 X152.929 Y133.356 E3.98911
G1 X153.045 Y133.891 E4.00176
G1 X153.081 Y134.412 E4.01382
G1 X153.081 Y138.123 E4.09957
G1 X153.041 Y138.669 E4.11222
G1 X152.922 Y139.203 E4.12486
G1 X152.727 Y139.714 E4.1375
G1 X152.459 Y140.192 E4.15016
G1 X152.124 Y140.625 E4.16281
G1 X151.73 Y141.005 E4.17546
G1 X151.285 Y141.324 E4.18811
G1 X150.798 Y141.574 E4.20076
G1 X150.28 Y141.751 E4.21341
G1 X149.742 Y141.85 E4.22605
G1 X149.331 Y141.873 E4.23556
G1 X130.669 Y141.873 E4.66676
G1 X130.123 Y141.833 E4.67941
G1 X129.589 Y141.714 E4.69205
G1 X129.078 Y141.519 E4.70469
G1 X128.6 Y141.251 E4.71735
G1 X128.167 Y140.916 E4.73
G1 X127.787 Y140.522 E4.74265
G1 X127.468 Y140.077 E4.7553
G1 X127.218 Y139.59 E4.76795
G1 X127.041 Y139.072 E4.7806
G1 X126.942 Y138.534 E4.79324
G1 X126.919 Y138.123 E4.80275
G1 X126.919 Y134.411 E4.88852
G1 X126.959 Y133.865 E4.90117
G1 X127.078 Y133.331 E4.91381
G1 X127.273 Y132.82 E4.92645
G1 X127.541 Y132.342 E4.93911
G1 X127.876 Y131.909 E4.95176
G0 F1750 X128.369 Y132.115
G1 F600 X128.756 Y131.783 E4.96354
G1 X129.191 Y131.517 E4.97532
G1 X129.661 Y131.321 E4.98709
G1 X130.156 Y131.202 E4.99885
G1 X130.65 Y131.161 E5.01031
G1 X132.164 Y131.152 E5.04529
G1 X132.285 Y131.154 E5.04809
G1 X139.55 Y131.381 E5.21603
G1 X143.161 Y131.342 E5.29947
G1 X149.235 Y131.163 E5.43988
G1 X149.744 Y131.188 E5.45166
G1 X150.243 Y131.292 E5.46343
G1 X150.719 Y131.473 E5.4752
G1 X151.161 Y131.726 E5.48697
G1 X151.558 Y132.045 E5.49874
G1 X151.901 Y132.423 E5.51053
G1 X152.18 Y132.849 E5.5223
G1 X152.39 Y133.313 E5.53406
G1 X152.524 Y133.805 E5.54585
G1 X152.581 Y134.412 E5.55993
G1 X152.581 Y138.123 E5.64568
G1 X152.541 Y138.631 E5.65745
G1 X152.422 Y139.126 E5.66922
G1 X152.227 Y139.597 E5.681
G1 X151.961 Y140.032 E5.69278
G1 X151.631 Y140.419 E5.70453
G1 X151.244 Y140.751 E5.71631
G1 X150.809 Y141.017 E5.72809
G1 X150.339 Y141.213 E5.73986
G1 X149.844 Y141.332 E5.75162
G1 X149.331 Y141.373 E5.76351
G1 X130.669 Y141.373 E6.19472
G1 X130.161 Y141.333 E6.20649
G1 X129.666 Y141.214 E6.21826
G1 X129.195 Y141.019 E6.23004
G1 X128.76 Y140.753 E6.24182
G1 X128.373 Y140.423 E6.25357
G1 X128.041 Y140.036 E6.26535
G1 X127.775 Y139.601 E6.27713
G1 X127.579 Y139.131 E6.2889
G1 X127.46 Y138.636 E6.30066
G1 X127.419 Y138.123 E6.31255
G1 X127.419 Y134.411 E6.39832
G1 X127.459 Y133.903 E6.4101
G1 X127.578 Y133.408 E6.42186
G1 X127.773 Y132.937 E6.43364
G1 X128.039 Y132.502 E6.44542
G1 X128.369 Y132.115 E6.45717
G1 F600 E5.45717
G0 F1750 X137.96 Y135.396
G0 X139.389 Y135.396
G0 X139.445 Y135.452
G0 X139.375 Y135.382
;TYPE:WALL-INNER
G1 F600 E6.45717
G1 X140.625 Y135.382 E6.48605
G1 X140.625 Y137.382 E6.53227
G1 X139.375 Y137.382 E6.56115
G1 X139.375 Y135.382 E6.60736
G1 F600 E5.60736
G0 F1750 X139.445 Y135.452
G0 X139.395 Y135.402
G0 X137.96 Y135.402
G0 X133.309 Y135.992
G0 X131.66 Y135.402
;TYPE:WALL-OUTER
G1 F600 E6.60736
G1 X131.66 Y136.882 E6.64156
G1 X138.875 Y136.882 E6.80827
G1 X138.875 Y134.882 E6.85448
G1 X141.125 Y134.882 E6.90647
G1 X141.125 Y136.882 E6.95268
G1 X148.34 Y136.882 E7.11939
G1 X148.34 Y135.402 E7.15359
G1 X147.36 Y135.402 E7.17623
G1 X147.36 Y134.652 E7.19356
G1 X149.09 Y134.652 E7.23353
G1 X149.09 Y137.882 E7.30817
G1 X130.91 Y137.882 E7.72823
G1 X130.91 Y134.652 E7.80287
G1 X132.64 Y134.652 E7.84284
G1 X132.64 Y135.402 E7.86017
G1 X131.66 Y135.402 E7.88281
G0 F1750 X131.66 Y135.652
G1 F600 E6.88281
G0 F1750 X133.309 Y135.992
G0 X137.96 Y135.652
G0 X139.395 Y135.652
G0 X139.865 Y135.872
;TYPE:SKIN
G1 F600 E7.88281
G1 X140.135 Y135.872 E7.88905
G1 X140.135 Y136.892 E7.91262
G1 X139.865 Y136.892 E7.91886
G1 X139.865 Y135.872 E7.94243
G0 F1750 X139.475 Y137.121
G0 X139.019 Y137.251
G1 F600 X138.795 Y137.381 E7.94883
G1 X138.441 Y137.381 E7.95734
G1 X138.088 Y137.381 E7.96582
G1 X137.734 Y137.381 E7.97433
G1 X137.381 Y137.381 E7.98281
G1 X137.027 Y137.381 E7.99132
G1 X136.674 Y137.381 E7.9998
G1 X136.32 Y137.381 E8.00831
G1 X135.966 Y137.381 E8.01681
G1 X135.613 Y137.381 E8.0253
G1 X135.259 Y137.381 E8.0338
G1 X134.906 Y137.381 E8.04228
G1 X134.552 Y137.381 E8.05079
G1 X134.199 Y137.381 E8.05927
G1 X133.845 Y137.381 E8.06778
G1 X133.492 Y137.381 E8.07626
G1 X133.138 Y137.381 E8.08477
G1 X132.784 Y137.381 E8.09328
G1 X132.431 Y137.381 E8.10176
G1 X132.077 Y137.381 E8.11027
G1 X131.724 Y137.381 E8.11875
G0 F1750 X131.284 Y136.941
G1 F600 X131.284 Y136.588 E8.12317
G1 X131.284 Y136.234 E8.1276
G1 X131.284 Y135.881 E8.13202
G1 X131.284 Y135.527 E8.13646
G1 X131.284 Y135.174 E8.14088
G1 X131.49 Y135.025 E8.1453
G1 X131.843 Y135.025 E8.14968
G1 X132.197 Y135.025 E8.15408
G0 F1750 X132.332 Y135.16
G0 X131.149 Y137.16
G0 X131.389 Y137.4
G1 F600 X131.213 Y137.577 E8.15904
G1 F600 E7.15904
G0 F1750 X131.149 Y138.797
G0 X139.389 Y138.797
G0 X139.389 Y137.368
G0 X140.525 Y137.313
G0 X141.013 Y137.477
G1 F600 E8.15904
G1 X141.27 Y137.381 E8.16597
G1 X141.624 Y137.381 E8.17447
G1 X141.977 Y137.381 E8.18296
G1 X142.331 Y137.381 E8.19146
G1 X142.684 Y137.381 E8.19995
G1 X143.038 Y137.381 E8.20845
G1 X143.391 Y137.381 E8.21693
G1 X143.745 Y137.381 E8.22544
G1 X144.098 Y137.381 E8.23392
G1 X144.452 Y137.381 E8.24243
G1 X144.806 Y137.381 E8.25094
G1 X145.159 Y137.381 E8.25942
G1 X145.513 Y137.381 E8.26793
G1 X145.866 Y137.381 E8.27641
G1 X146.22 Y137.381 E8.28492
G1 X146.573 Y137.381 E8.2934
G1 X146.927 Y137.381 E8.30191
G1 X147.28 Y137.381 E8.31039
M104 S245
G1 X147.634 Y137.381 E8.3189
G1 X147.988 Y137.381 E8.3274
G1 X148.341 Y137.381 E8.33588
G1 X148.642 Y137.328 E8.34354
G1 X148.713 Y137.046 E8.34913
G1 X148.713 Y136.692 E8.35356
G1 X148.713 Y136.339 E8.35798
G1 X148.713 Y135.985 E8.36242
G1 X148.713 Y135.632 E8.36684
G1 X148.588 Y135.153 E8.37331
G1 X148.108 Y135.027 E8.37978
G1 X147.754 Y135.027 E8.3842
G0 F1750 X147.62 Y134.892
G0 X148.681 Y134.892
;TYPE:SKIN
G1 F600 X148.849 Y135.06 E8.38694
G1 F600 E7.38694
G0 F1750 X148.849 Y133.737
G0 X146.982 Y133.741
G0 X142.04 Y135.396
G0 X140.611 Y135.396
G0 X139.445 Y135.452
G0 X139.375 Y135.382
;TIME_ELAPSED:46.153754
;LAYER:1
M140 S95
M221 S100
M106 S38.2
G0 F6125 X139.375 Y135.382 Z0.45
;TYPE:WALL-INNER
G1 F600 E8.38694
G1 F337.5 X140.625 Y135.382 E8.40138
G1 X140.625 Y137.382 E8.42449
G1 X139.375 Y137.382 E8.43893
G1 X139.375 Y135.382 E8.46204
G1 F600 E7.46204
G0 F6125 X139.445 Y135.452
G0 X139.395 Y135.402
G0 X137.96 Y135.402
G0 X133.309 Y135.992
G0 X131.66 Y135.402
;TYPE:WALL-OUTER
G1 F600 E8.46204
G1 F300 X131.66 Y136.882 E8.47913
G1 X138.875 Y136.882 E8.56249
G1 X138.875 Y134.882 E8.5856
G1 X141.125 Y134.882 E8.61159
G1 X141.125 Y136.882 E8.6347
G1 X148.34 Y136.882 E8.71805
G1 X148.34 Y135.402 E8.73515
G1 X147.36 Y135.402 E8.74647
G1 X147.36 Y134.652 E8.75514
G1 X149.09 Y134.652 E8.77512
G1 X149.09 Y137.882 E8.81244
G1 X130.91 Y137.882 E9.02247
G1 X130.91 Y134.652 E9.05979
G1 X132.64 Y134.652 E9.07978
G1 X132.64 Y135.402 E9.08844
G1 X131.66 Y135.402 E9.09976
G0 F6125 X131.66 Y135.652
G1 F600 E8.09976
G0 F6125 X133.309 Y135.992
G0 X137.96 Y135.652
G0 X139.395 Y135.652
G0 X139.865 Y135.872
;TYPE:SKIN
G1 F600 E9.09976
G1 F525 X140.135 Y135.872 E9.10288
G1 X140.135 Y136.892 E9.11467
G1 X139.865 Y136.892 E9.11779
G1 X139.865 Y135.872 E9.12957
G0 F6125 X139.475 Y137.12
G0 X138.743 Y137.38
G1 F525 X138.992 Y137.485 E9.13297
G0 F6125 X138.389 Y137.38
G1 F525 X138.036 Y137.38 E9.13722
G1 X137.682 Y137.38 E9.14148
G1 X137.329 Y137.38 E9.14573
G1 X136.975 Y137.38 E9.15
G1 X136.622 Y137.38 E9.15424
G1 X136.268 Y137.38 E9.15851
G1 X135.915 Y137.38 E9.16276
G1 X135.561 Y137.38 E9.16702
G1 X135.207 Y137.38 E9.17128
G1 X134.854 Y137.38 E9.17553
G1 X134.5 Y137.38 E9.17979
G1 X134.147 Y137.38 E9.18404
G1 X133.793 Y137.38 E9.1883
G1 X133.44 Y137.38 E9.19255
G1 X133.086 Y137.38 E9.19681
G1 X132.733 Y137.38 E9.20106
G1 X132.379 Y137.38 E9.20532
G1 X132.025 Y137.38 E9.20958
G1 X131.672 Y137.38 E9.21383
G1 X131.364 Y137.334 E9.21772
G1 X131.285 Y137.061 E9.22056
G1 X131.285 Y136.707 E9.22277
G1 X131.285 Y136.354 E9.22497
G1 X131.285 Y136 E9.22718
G1 X131.285 Y135.647 E9.22938
G1 X131.419 Y135.159 E9.23268
G1 X131.906 Y135.026 E9.23596
G1 X132.26 Y135.026 E9.23817
G0 F6125 X132.395 Y134.891
G0 X131.334 Y134.891
;TYPE:SKIN
G1 F525 X131.15 Y135.075 E9.23968
G1 F600 E8.23968
G0 F6125 X131.15 Y133.737
G0 X133.018 Y133.741
G0 X137.96 Y135.396
G0 X139.389 Y135.396
G0 X140.555 Y137.312
G0 X140.987 Y137.259
G1 F600 E9.23968
G1 F525 X141.218 Y137.381 E9.24292
G1 X141.571 Y137.381 E9.24717
G1 X141.925 Y137.381 E9.25142
G1 X142.278 Y137.381 E9.25566
G1 X142.632 Y137.381 E9.25991
G1 X142.985 Y137.381 E9.26415
G1 X143.339 Y137.381 E9.26841
G1 X143.693 Y137.381 E9.27266
G1 X144.046 Y137.381 E9.2769
G1 X144.4 Y137.381 E9.28116
G1 X144.753 Y137.381 E9.2854
G1 X145.107 Y137.381 E9.28965
G1 X145.46 Y137.381 E9.29389
G1 X145.814 Y137.381 E9.29815
G1 X146.167 Y137.381 E9.30239
G1 X146.521 Y137.381 E9.30664
G1 X146.875 Y137.381 E9.31089
G1 X147.228 Y137.381 E9.31513
G1 X147.582 Y137.381 E9.31939
G1 X147.935 Y137.381 E9.32363
G1 X148.289 Y137.381 E9.32788
G1 X148.615 Y137.408 E9.3319
G1 X148.713 Y136.956 E9.33491
G1 X148.713 Y136.603 E9.3371
G1 X148.713 Y136.249 E9.3393
G1 X148.713 Y135.896 E9.3415
G1 X148.713 Y135.542 E9.3437
G1 X148.713 Y135.188 E9.3459
G1 X148.522 Y135.026 E9.3481
G1 X148.169 Y135.026 E9.35031
G1 X147.815 Y135.026 E9.35252
G1 F600 E8.35252
G0 F6125 X146.691 Y135.992
G0 X146.449 Y135.78
G0 X146.449 Y134.274
G0 X146.982 Y133.741
G0 X149.468 Y133.741
G0 X150.001 Y134.274
G0 X150.005 Y137.529
G0 X148.848 Y137.529
G1 F600 E9.35252
G1 F525 X148.736 Y137.641 E9.35344
G1 F600 E8.35344
G0 F6125 X148.736 Y138.797
G0 X140.611 Y138.797
G0 X140.611 Y137.368
G0 X139.445 Y135.452
G0 X139.375 Y135.382
;TIME_ELAPSED:64.049636
;LAYER:2
M106 S76.5
G0 F10500 X139.375 Y135.382 Z0.6
;TYPE:WALL-INNER
G1 F600 E9.35344
G1 F350 X140.625 Y135.382 E9.36788
G1 X140.625 Y137.382 E9.39098
G1 X139.375 Y137.382 E9.40543
G1 X139.375 Y135.382 E9.42853
G1 F600 E8.42853
G0 F10500 X139.445 Y135.452
G0 X139.395 Y135.402
G0 X137.96 Y135.402
